X:1
T:Con la candida man
T:Constantijn Huygens
T:Con la candida man
C:Constantijn Huygens
%%score 1 2 { ( 3 4 ) | 5 }
L:1/8
Q:1/4=100
M:4/4
K:A
V:1 treble nm="Soprano" snm="S"
V:2 treble transpose=-12 nm="Viola da Gamba" snm="V.Gam."
V:3 treble nm="Harpsichord" snm="Hpschd."
V:4 treble 
V:5 bass 
V:1
 z2 EE E2 FG | AA A4 AB | cc e4 B2 | c2 Bc A4 | z ABc d3 A | BF G4 FE | ^D2 E2 F2 G2 | %7
w: Con la can- di- da|man, la can- di- da|man, la man ar-|di- ta Ch'A- mor,|A- mor so- ver- chio|spin- se Fil- li- nel|suo bel sen fe-|
 G/A/B F2 F4 | E8 :: B2 B2 B4- | B2 ^AA B3 d | c2 B2 cFFG | A2 A3 GGF | FF =G4 ^G2 | A2 B2 z4 | %15
w: rim- * * mi e strin-|se.|Io ch'al dol-|* ce do- ler del-|la fe- ri- ta Mi sen-|ti l'a- ni- ma dal|cor, dal cor ra-|pi- ta|
 =c2 c2 c4 | !courtesy!^c2 cc dA d2- | d2 B2 BB e2- | ec f4 c2 | z2 z F F2 F2 | B4 E4 | z2 cd e4- | %22
w: Con un fin-|* to, che fai, che fai?|_ Fil- li, che fai,|_ che fa- i?|Ba- ciai la|sfer- za|e'l ca- sti-|
 e4 G2 A2 | A2- A/B/c/B/ B4 | A8 :| %25
w: * go a- do-|ra- * * * * *|i.|
V:2
 a4 a2 g2 | f6 ed | c4 B4 | A2 G2 F4 | f2 e2 d2 c2 | B2 ef g2 a2 | b4 B2 A2 | G2 A2 B4 | e8 :: %9
 e6 d2 | c4 B4 | ^A2 B2 f4 | f2 ^d4 e2 | b4 =c'2 b2 | a2 g2 a4 | A4 a4- | a2 =g2 f4 | =g4 ^g4 | %18
 a4 ^a4 | b2 B4 A2 | G4 A2 G2 | F2 c4 d2 | e8 | E8 | A8 :| %25
V:3
 E2 E2 E2 ED | C2 F2 F2 E[DF] | [^EG]4 [DFB]4 | [CEA]4 [CFA]4 | [CF]2 [B,EG]2 [DFA]2 [C^E]2 | %5
 [DF]2 [EG]2 [B,E]2 [CE]2 | [^DF]2 [EG]2 [DF]2 [CE]2 | [EB]6 [^DA]2 | [EG]8 :: [=GB]8 | %10
 [CF]4 [D=G]4 | F2 G2 [F^A]4 | [CFA]2 [B,F]4 [B,EG]2 | [B,DF]2 [=CE=G]4 [B,E^G]2 | [B,E]4 [CEA]4 | %15
 =CDE=F =GAB=c | [EA!courtesy!^c]4 [FAd]4 | [D=GB]4 [E^GB]4 | [Ac]4 [F^Ac]4 | [B,DF]4 [B,^DF]4 | %20
 [B,EG]4 [CE]4 | [CFA]4 [EA]4 | [EG]2 [FA]2 [EB]4 | [CEA]4 A/G/A/G/ A/G/F/G/ | [CEA]8 :| %25
V:4
 C4 C2 B,2 | A,4 [A,C]2 CB, | G,4 D4 | x8 | x8 | x8 | x8 | x8 | x8 :: x8 | x8 | x8 | x8 | x8 | x8 | %15
 x8 | x8 | x8 | x8 | x8 | x8 | x8 | x8 | x8 | x8 :| %25
V:5
 A,4 A,2 G,2 | F,6 E,D, | C,4 B,,4 | A,,2 G,,2 F,,4 | F,2 E,2 D,2 C,2 | B,,2 E,F, G,2 A,2 | %6
 B,4 B,,2 A,,2 | G,,2 A,,2 B,,4 | E,8 :: E,6 D,2 | C,4 B,,4 | ^A,,2 B,,2 F,4 | F,2 ^D,4 E,2 | %13
 B,4 =C2 B,2 | A,2 G,2 A,4 | A,,4 A,4- | A,2 =G,2 F,4 | =G,4 ^G,4 | A,4 ^A,4 | B,2 B,,4 A,,2 | %20
 G,,4 A,,2 G,,2 | F,,2 C,4 D,2 | E,8 | E,,8 | A,,8 :| %25

